static/images/mobile/copyright/wikipedia-wordmark-bn.svg

<?xml version="1.0" encoding="UTF-8"?>
<svg width="120px" height="27px" viewBox="0 0 120 27" version="1.1" xmlns="http://www.w3.org/2000/svg" xmlns:xlink="http://www.w3.org/1999/xlink">
    <title>wikipedia-wordmark-bn</title>
    <g id="Page-1" stroke="none" stroke-width="1" fill="none" fill-rule="evenodd">
        <path d="M62.5709589,1.24344979e-14 C65.7694458,1.24344979e-14 68.8241804,1.50939822 71.7351627,4.52819466 L72.0316524,5.33680085 C71.5464887,4.90554422 71.0074175,4.48326959 70.4144389,4.06997696 C69.821461,3.63872033 69.1476225,3.21644946 68.3929234,2.80316436 C67.7101007,2.40784327 67.0003244,2.1203401 66.2635946,1.94065486 C65.5448332,1.76096208 64.7991184,1.67111569 64.02645,1.67111569 C62.8944013,1.67111569 61.7353991,2.06643302 60.5494434,2.85706768 C59.237705,3.71958094 58.5458976,4.68092637 58.4740212,5.74110395 L59.0669995,7.16963779 L60.7111646,7.16963779 L62.2475164,8.67903224 L59.6060699,8.67903224 L59.6060699,24.4468529 L58.0697181,22.9374585 L58.0697181,8.67903224 L55.7786669,8.67903224 L48.6726187,8.67903224 L48.6726187,9.7841349 C50.4335838,9.7841349 51.8531372,10.5028947 52.9312788,11.9404143 C53.9555133,13.2341842 54.4676305,14.653736 54.4676305,16.1990698 C54.4676305,16.5764194 54.4047388,16.9358011 54.2789554,17.2772152 C54.1531719,17.6186292 53.982466,17.9241039 53.7668377,18.1936393 C53.5512094,18.4452031 53.2906587,18.6518457 52.9851855,18.8135669 C52.6797123,18.9573166 52.3472851,19.0291915 51.9879041,19.0291915 C51.736338,19.0291915 51.4937561,18.9842702 51.2601585,18.8944275 C51.0265617,18.7866134 50.8109334,18.6518457 50.6132736,18.4901244 C50.4335838,18.3284032 50.2808472,18.1397284 50.1550638,17.9241001 C50.0472496,17.6905003 49.9933426,17.4389326 49.9933426,17.1693972 C49.9933426,16.6842335 50.1640484,16.2799304 50.5054602,15.956488 C50.8468712,15.6330455 51.2691432,15.4713242 51.7722762,15.4713242 C52.0777494,15.4713242 52.3472848,15.5432029 52.5808824,15.6869601 C52.8324485,15.8307098 53.0570614,16.0283666 53.2547212,16.2799304 L53.3894885,15.9295419 C53.3894885,14.8873359 52.9762008,13.952944 52.1496253,13.1263663 C51.3410192,12.245889 50.1730327,11.8146324 48.6456659,11.8325964 L48.6456659,24.4199069 C48.5378518,24.4019128 48.4300376,24.3659622 48.3222235,24.3120551 C48.2144093,24.2401539 48.142533,24.1592933 48.1065944,24.0694733 C47.7472141,23.1889885 47.3159575,22.3713965 46.8128245,21.6166974 C46.3276608,20.8440343 45.78859,20.1612138 45.1956121,19.5682359 C43.8299666,18.2025874 42.3025995,17.4209347 40.6135107,17.223278 L38.4841807,14.5818235 C41.053752,12.5513261 43.9737189,11.0059923 47.2440815,9.94582226 L47.2440815,8.67899836 L38.293,8.678 L35.6532155,8.67903224 L35.6532155,24.4468529 L34.1168637,22.9374585 L34.1168637,8.67903224 L24.4915036,8.67903224 C24.6172863,8.87669655 24.752054,9.0743571 24.8958067,9.27201388 C25.0395586,9.45170665 25.1833106,9.62241366 25.3270626,9.7841349 C26.8544301,10.3232057 27.8786646,10.898212 28.3997661,11.5091539 C29.2083723,12.2997961 29.6126754,13.3150486 29.6126754,14.5549114 C29.6126754,15.7947742 29.1185274,16.8190088 28.1302314,17.6276149 C27.3935009,18.2565284 26.2704365,18.7686456 24.7610382,19.1639667 C25.7852727,19.7749086 26.872399,20.574529 28.0224169,21.562828 C29.1904034,22.5511269 30.4482351,23.7280969 31.7959121,25.0937379 L32.1463085,26.657047 C31.4275472,25.8484408 30.6369099,25.0937417 29.7743966,24.3929496 C28.9118833,23.6741861 27.9415559,23.0003476 26.8634143,22.3714342 C25.8391798,21.7964278 24.7790075,21.2932963 23.6828974,20.8620397 C22.5867865,20.4307831 21.4906757,20.080387 20.3945648,19.8108517 L18.5886784,16.0373486 C19.864479,16.7381406 21.2750474,17.1514295 22.8203834,17.2772152 C23.9883706,17.3670578 25.0215897,17.178383 25.9200408,16.7111908 C27.1599036,16.1002414 27.7528815,15.2826495 27.6989744,14.258415 C27.6989744,13.9349725 27.6450674,13.6205158 27.5372532,13.3150448 C27.4474083,13.0095739 27.303656,12.7400385 27.1059962,12.5064386 C26.9263064,12.2728388 26.7106781,12.084164 26.4591112,11.9404143 C26.2075451,11.7966646 25.9200408,11.7247898 25.5965983,11.7247898 C25.4528464,11.7247898 25.3180787,11.7427462 25.1922952,11.7786592 C25.0844811,11.8145721 24.958698,11.8505227 24.8149461,11.886511 C24.8149461,12.605267 24.5094725,13.261134 23.8985253,13.8541119 C23.2696097,14.4470897 22.6047558,14.7435787 21.9039638,14.7435787 C21.4547379,14.7435787 21.0414501,14.608811 20.6641006,14.3392756 C20.286751,14.0517762 20.0980763,13.6834124 20.0980763,13.2341842 C20.0980763,12.3896425 20.4574569,11.6349434 21.1762182,10.9700869 C21.859041,10.3411735 22.6766314,9.98179168 23.6289896,9.89194153 C23.6289896,9.60444212 23.2875782,9.20013903 22.6047554,8.67903224 L9.3798318,8.67903224 L9.3798318,13.3150448 C9.3798318,13.6205158 9.46069242,13.9080189 9.62241366,14.1775543 C9.80210418,14.4470897 10.044686,14.5818574 10.3501592,14.5818574 C11.0509513,14.3482651 11.6978362,13.8361479 12.2908141,13.0455057 C12.883792,12.1829924 13.2791108,11.7517358 13.4767706,11.7517358 C14.1955311,11.7517358 14.8514004,12.3177601 15.4443782,13.4498088 C15.983449,14.4560793 16.2529844,15.3724996 16.2529844,16.1990698 C16.324863,17.9780034 15.8756375,19.4784196 14.9053078,20.7003185 C13.7373213,21.8862742 12.3537062,22.5062056 10.7544623,22.5601127 C6.33408182,22.5601127 3.66568139,18.2744999 2.74926105,9.70327428 L3.80044909,10.2962446 C3.87232771,11.3743862 4.04303358,12.4255743 4.31256672,13.4498088 C4.58210212,14.4740433 4.96843631,15.4623422 5.4715693,16.4147057 C6.80127701,18.7686456 8.46341183,19.9456156 10.4579738,19.9456156 C11.0689209,19.9456156 11.6349452,19.8467872 12.1560468,19.6491304 C12.6771483,19.4514661 13.1712966,19.1639592 13.6384918,18.7866096 C14.59085,18.0319105 15.067029,17.0615831 15.067029,15.8756273 C15.067029,15.1928068 14.788509,14.5459219 14.2314689,13.9349725 C14.0158406,14.294358 13.7552899,14.6537398 13.4498167,15.0131178 C13.1443435,15.3724958 12.7939475,15.7049241 12.3986286,16.0104026 C12.0392483,16.3158735 11.6798677,16.5494696 11.3204867,16.7111908 C10.9611064,16.8729121 10.6466485,16.9537727 10.3771131,16.9537727 C10.0536707,16.9537727 9.73921283,16.8908798 9.43373964,16.7650941 C9.14623496,16.639316 8.88568383,16.459627 8.65208623,16.2260271 C8.43645791,15.9924273 8.25676778,15.7139061 8.11301582,15.3904636 C7.96926385,15.0670211 7.89738787,14.7076431 7.89738787,14.3123296 L7.89738787,8.67903224 L1.48244506,8.67903224 L0,7.16963779 L12.7759778,7.16963779 C13.4228628,7.18763191 13.7463052,6.91809651 13.7463052,6.3610316 C13.7463052,5.89383942 13.4588009,5.53445763 12.8837923,5.28288625 C12.4345664,5.103201 11.9583873,5.01335838 11.4552551,5.01335838 C11.2036882,5.01335838 10.8982147,5.02235544 10.5388344,5.04034956 C10.1974226,5.05834368 9.77515064,5.08529722 9.2720184,5.12121018 C8.80482321,5.15712314 8.38255084,5.18407668 8.00520128,5.2020708 C7.645821,5.22006492 7.34933207,5.22906198 7.11573447,5.22906198 C5.98368581,5.22906198 4.9414824,4.94155882 3.98912425,4.36655248 C2.91098266,3.71966753 2.37191187,2.86613626 2.37191187,1.80595868 C2.37191187,0.943445413 2.64144726,0.359453308 3.18051806,0.0539823685 L3.45005383,0.188746302 C3.57583651,0.242653382 3.68365067,0.287578457 3.77349631,0.32352153 C3.39614675,0.62899247 3.20747197,0.988370489 3.20747197,1.40165559 C3.20747197,1.95869792 3.56685225,2.40792609 4.28561281,2.7493401 C4.53717968,2.85715426 4.81569971,2.94699688 5.12117291,3.01886797 C5.44461539,3.09076917 5.75907323,3.12671977 6.06454642,3.12671977 C6.3161133,3.12671977 6.62158687,3.11772271 6.98096715,3.09972859 C7.3583167,3.08173446 7.80754224,3.05478092 8.32864376,3.01886797 C8.83177675,2.98295501 9.27201802,2.95600147 9.64936758,2.93800735 C10.0446864,2.90209439 10.3681289,2.88413791 10.619695,2.88413791 C12.0212791,2.88413791 13.1263742,3.26148747 13.9349804,4.01618658 C14.7435866,4.75291415 15.1209361,5.8041022 15.067029,7.16975072 L26.4860652,7.16963779 C26.6837242,7.16963779 26.8993525,7.15168131 27.1329501,7.11576835 C27.3665477,7.06186127 27.582176,6.99896842 27.7798351,6.92708981 C28.3368751,6.72943303 28.6153952,6.43294409 28.6153952,6.037623 C28.6153952,5.66027345 28.3009369,5.38175228 27.6720205,5.20205951 C27.4743615,5.1301583 27.2587332,5.08523699 27.0251356,5.06729557 C26.7915387,5.03138262 26.5489569,5.01342614 26.29739,5.01342614 C26.0458239,5.01342614 25.731366,5.0224232 25.3540165,5.04041732 C24.9946362,5.05841144 24.5633796,5.08536498 24.0602466,5.12127794 C23.5571136,5.1571909 23.1168723,5.18414444 22.7395228,5.20213856 C22.3801425,5.22013268 22.0746693,5.22912974 21.8231032,5.22912974 C20.6910545,5.22912974 19.6488507,4.95060858 18.6964918,4.39356625 C17.6003817,3.7466813 17.0523266,2.90213957 17.0523266,1.85994105 C17.0523266,1.64431273 17.1781097,1.30289872 17.4296758,0.835699015 C17.6812419,0.386478373 17.9148392,0.179835824 18.1304675,0.215771367 C18.1843746,0.215771367 18.2472663,0.224768428 18.3191426,0.242762551 L18.5347706,0.242762551 C18.1035139,0.548233491 17.8878856,0.970504358 17.8878856,1.50957515 C17.8878856,2.0127104 18.157421,2.42599926 18.6964918,2.74944174 C19.1277484,3.01897714 19.6218968,3.15374483 20.1789369,3.15374483 C20.3945652,3.15374483 20.8258218,3.13578836 21.4727068,3.0998754 C22.137561,3.04596832 23.0090589,2.97409347 24.0872005,2.88425085 C25.9739483,2.9201638 27.4024859,3.29751336 28.3728133,4.01629951 C29.3431407,4.71709154 29.7833816,5.76827959 29.693536,7.16986365 L34.3594456,7.16963779 L33.3082575,6.17235305 C32.9129394,5.77703949 32.7152804,5.3727364 32.7152804,4.95944377 C32.7152804,3.73755248 33.3981031,2.58753604 34.7637486,1.50939446 C36.0934571,0.503131486 37.3782427,-1.59872116e-14 38.6181056,-1.59872116e-14 C41.8165918,-1.59872116e-14 44.871326,1.50939822 47.7823083,4.52819466 L48.078798,5.33680085 C47.5936343,4.90554422 47.0545635,4.48326959 46.4615856,4.06997696 C45.8686077,3.63872033 45.1947693,3.21644946 44.4400701,2.80316436 C43.7572466,2.40784327 43.04747,2.1203401 42.3107401,1.94065486 C41.5919788,1.76096208 40.8462644,1.67111569 40.0735967,1.67111569 C38.941548,1.67111569 37.7825458,2.06643302 36.5965901,2.85706768 C35.2848509,3.71958094 34.5930431,4.68092637 34.5211668,5.74110395 L35.114145,7.16963779 L58.3123,7.16963779 L57.2611119,6.17235305 C56.8657931,5.77703949 56.6681337,5.3727364 56.6681337,4.95944377 C56.6681337,3.73755248 57.3509568,2.58753604 58.7166031,1.50939446 C60.0463108,0.503131486 61.331096,1.24344979e-14 62.5709589,1.24344979e-14 Z M112.587882,7.16963779 C113.504302,7.16963779 114.21408,7.37628034 114.717215,7.78956543 C115.220351,8.18488653 115.624654,8.84974301 115.930125,9.7841349 C115.930125,9.47865643 115.921128,9.10130687 115.903133,8.65208623 C115.885139,8.20285806 115.849189,7.67276927 115.795282,7.06181986 C115.759369,6.46884199 115.732415,5.95672474 115.714421,5.5254681 C115.696427,5.07624746 115.68743,4.69889791 115.68743,4.39341944 L116.226497,4.85163714 C116.40619,5.92977873 116.72065,6.70244561 117.169878,7.16963779 L118.517552,7.16963779 L120,8.67903224 L117.169991,8.67903224 L117.169991,24.4468529 L115.7145,22.9374585 L115.7145,11.7517358 C115.7145,11.2845436 115.624654,10.8622727 115.444961,10.4849232 C115.265268,10.1075736 115.013701,9.7931169 114.690258,9.54155304 C114.384787,9.27201764 114.034391,9.06537133 113.63907,8.9216141 C113.225785,8.75989286 112.803514,8.67903224 112.372257,8.67903224 L111.599451,8.67903224 L111.599451,24.7163921 C111.186159,24.4109212 110.629116,23.6382543 109.928324,22.3983915 C109.173625,21.08665 108.44588,20.1253046 107.745088,19.5143552 C106.595075,18.6159064 105.103648,18.1217607 103.270808,18.031918 L101.249292,15.4174209 C102.057898,14.6447503 102.848533,13.9080189 103.621196,13.2072269 C104.411838,12.5064349 105.139584,11.913457 105.804433,11.4282933 C105.624747,11.2306365 105.274351,11.0060262 104.753245,10.7544623 C104.232145,10.5028909 103.540339,10.215384 102.677826,9.89194153 C101.598687,9.57679449 100.699727,9.17282753 99.980944,8.68004066 L91.6104499,8.67903224 L91.6104499,14.7974933 C92.1135829,14.8693945 92.5448395,14.7975159 92.9042198,14.5818574 C93.2815694,14.3482651 93.6229811,14.0517762 93.9284551,13.6923906 C94.2339283,13.3150411 94.5214326,12.9287095 94.790968,12.5333959 C95.0784726,12.1201033 95.3839462,11.7697073 95.7073887,11.4822079 C96.1566138,11.7337718 96.5519323,12.0482285 96.8933441,12.425578 C97.2347581,12.8029276 97.5132792,13.2251984 97.7289075,13.6923906 C97.9624999,14.1416188 98.1421889,14.6267825 98.2679746,15.1478818 C98.3937603,15.651017 98.4566531,16.1541523 98.4566531,16.6572875 C98.4566531,18.3823141 97.9804714,19.7928801 97.028108,20.8889857 C96.0398143,22.0390059 94.6831542,22.614016 92.9581276,22.614016 C88.4658708,22.614016 85.8154393,18.3104354 85.0068331,9.70327428 L86.0041144,10.188438 C86.1119286,11.3384507 86.3095876,12.4615136 86.5970915,13.5576267 C86.8845962,14.6537398 87.2529615,15.6240672 87.7021874,16.468609 C88.9061117,18.7866134 90.5952,19.9456156 92.7694525,19.9456156 C93.5600894,19.9636097 94.3058039,19.7839207 95.0065959,19.4065486 C95.7253572,19.0112275 96.2913804,18.517078 96.7046655,17.9241001 C97.1359221,17.3311222 97.3605362,16.6752515 97.3785078,15.956488 C97.3965019,15.2377319 97.100013,14.5638934 96.489041,13.9349725 C96.345289,14.3662291 96.120676,14.7615502 95.8152021,15.1209358 C95.5276982,15.4803138 95.1862868,15.7947705 94.790968,16.0643059 C94.4136184,16.3338413 94.0003307,16.5584554 93.5511048,16.7381481 C93.1198481,16.9178334 92.6885915,17.0346295 92.2573349,17.0885366 C90.8557508,17.0885366 90.1549588,16.010395 90.1549588,13.8541119 L90.1549588,8.67903224 L81.6637513,8.67903224 L81.6637513,24.4468529 L80.1273995,22.9374585 L80.1273995,8.67903224 L76.1294337,8.67903224 L76.1294337,24.4199069 L74.5122213,22.8565979 L74.7278492,14.7974933 C74.7278492,14.5638934 74.6739422,14.3123258 74.566128,14.0427904 C74.4583138,13.7552835 74.3055772,13.4498088 74.1079182,13.1263663 C73.9102584,12.8208953 73.712599,12.5603457 73.51494,12.3447174 C73.3172809,12.1290891 73.1286061,11.9494001 72.9489156,11.8056504 L67.6390687,17.1424512 L65.4827848,16.360791 C66.5249885,15.3724996 67.0460904,14.590847 67.0460904,14.0158331 C67.0460904,12.9736346 66.7406169,12.4525353 66.1296697,12.4525353 C65.9859178,12.4525353 65.8331812,12.4794889 65.6714599,12.5333959 C65.5097387,12.587303 65.303095,12.6591779 65.0515289,12.7490205 C64.602303,12.9466773 64.2429223,13.0455057 63.9733869,13.0455057 C63.6679137,13.0455057 63.3893937,12.9197237 63.1378268,12.6681599 C62.90423,12.416596 62.7874315,12.1380749 62.7874315,11.8325964 C62.7874315,11.2935256 62.9761063,10.7544548 63.3534559,10.215384 C63.748774,9.67631321 64.296829,9.17318172 64.997621,8.70598955 C65.644506,8.29270445 66.291391,7.97824774 66.9382759,7.76261942 C67.5851609,7.54699111 68.196108,7.43917695 68.7711174,7.43917695 C70.9813076,7.43917695 73.0387609,9.06537133 74.9434772,12.3177601 L74.9973805,12.2907689 C74.9434734,10.9790275 74.8805817,9.65830403 74.8087053,8.32859858 C74.7368267,6.99888561 74.673935,5.6691764 74.6200302,4.33947095 L75.2938691,4.90549528 C75.3837139,5.71410147 75.4645746,6.23520449 75.5364509,6.46880435 C75.7076368,6.86823399 75.9864128,7.1091114 76.3727789,7.1914366 L76.3539032,7.16963779 L80.3699814,7.16963779 L79.3187933,6.17235305 C78.9234745,5.77703949 78.7258151,5.3727364 78.7258151,4.95944377 C78.7258151,3.73755248 79.4086382,2.58753604 80.7742845,1.50939446 C82.1039922,0.503131486 83.3887774,1.24344979e-14 84.6286403,1.24344979e-14 C87.8271272,1.24344979e-14 90.8818618,1.50939822 93.7928441,4.52819466 L94.0893327,5.33680085 C93.604169,4.90554422 93.0650982,4.48326959 92.4721203,4.06997696 C91.8791424,3.63872033 91.2053039,3.21644946 90.4506048,2.80316436 C89.7677821,2.40784327 89.0580054,2.1203401 88.3212748,1.94065486 C87.6025143,1.76096208 86.8567998,1.67111569 86.0841314,1.67111569 C84.9520827,1.67111569 83.7930805,2.06643302 82.6071248,2.85706768 C81.2953856,3.71958094 80.6035782,4.68092637 80.5317026,5.74110395 L81.1246797,7.16963779 L112.587882,7.16963779 Z M105.346226,20.4846826 C105.777483,20.4846826 106.145847,20.6374219 106.451318,20.9429003 C106.756796,21.2483713 106.909535,21.616735 106.909535,22.0479917 C106.909535,22.4612768 106.756796,22.8206586 106.451318,23.126137 C106.145847,23.431608 105.777483,23.5843434 105.346226,23.5843434 C104.932941,23.5843434 104.573559,23.431608 104.268081,23.126137 C103.96261,22.8206586 103.809875,22.4612768 103.809875,22.0479917 C103.809875,21.616735 103.96261,21.2483713 104.268081,20.9429003 C104.573559,20.6374219 104.932941,20.4846826 105.346226,20.4846826 Z M110.117003,8.67903224 L104.321996,8.67903224 C104.789188,8.96653918 105.346226,9.42474935 105.993111,10.0536628 C106.639996,10.6825837 107.340788,11.4552544 108.095487,12.3716747 C107.484538,12.946681 106.873592,13.5486409 106.26265,14.1775543 C105.651701,14.7885037 105.03177,15.4353887 104.402856,16.1182092 C106.882582,16.9807225 108.76933,18.5080922 110.0631,20.7003185 L110.117003,20.7003185 L110.117003,8.67903224 Z M47.1632209,12.0212749 C46.2468005,12.3626889 45.3303802,12.7939456 44.4139598,13.3150448 C43.4975395,13.8181801 42.5272121,14.4291257 41.5029776,15.1478818 C44.018641,16.2080593 45.8874199,17.8881646 47.1093142,20.1881974 L47.1632209,20.1881974 L47.1632209,12.0212749 Z M69.2832339,9.05638933 C67.6121144,9.05638933 66.4351433,9.73920982 65.7523205,11.1048508 C66.5609267,11.1048508 67.14492,11.3743862 67.5043002,11.913457 C67.8816498,12.4525278 68.0254021,13.1263663 67.9355572,13.9349725 L71.6551457,10.215384 C70.9543537,9.44272089 70.1637164,9.05638933 69.2832339,9.05638933 Z" id="wikipedia-wordmark-bn" fill="#000000" fill-rule="nonzero"></path>
    </g>
</svg>

<svg xmlns="http://www.w3.org/2000/svg" width="120" height="27"><path fill="#000" fill-rule="nonzero" d="M62.571 0c3.198 0 6.253 1.51 9.164 4.528l.297.809a17.45 17.45 0 0 0-1.618-1.267 18.753 18.753 0 0 0-2.021-1.267 8.034 8.034 0 0 0-2.13-.862 9.19 9.19 0 0 0-2.237-.27c-1.132 0-2.29.395-3.477 1.186-1.311.863-2.003 1.824-2.075 2.884l.593 1.429h1.644l1.537 1.509h-2.642v15.768l-1.536-1.51V8.68h-9.397v1.105c1.76 0 3.18.719 4.258 2.156 1.025 1.294 1.537 2.714 1.537 4.26 0 .376-.063.736-.189 1.077a3.258 3.258 0 0 1-.512.917 2.652 2.652 0 0 1-.782.62 2.312 2.312 0 0 1-.997.215 2.01 2.01 0 0 1-.728-.135 3.007 3.007 0 0 1-.647-.404 2.346 2.346 0 0 1-.458-.566 1.779 1.779 0 0 1-.162-.755c0-.485.171-.89.512-1.213.342-.323.764-.485 1.267-.485.306 0 .575.072.809.216.251.144.476.341.674.593l.134-.35c0-1.043-.413-1.977-1.24-2.804-.808-.88-1.976-1.311-3.503-1.293V24.42a1.143 1.143 0 0 1-.324-.108.544.544 0 0 1-.215-.243c-.36-.88-.791-1.698-1.294-2.452a11.618 11.618 0 0 0-1.617-2.049c-1.366-1.365-2.893-2.147-4.582-2.345l-2.13-2.641c2.57-2.03 5.49-3.576 8.76-4.636V8.679l-8.951-.001-2.64.001v15.768l-1.536-1.51V8.68h-9.625c.125.198.26.395.404.593.144.18.287.35.431.512 1.527.54 2.552 1.114 3.073 1.725.808.79 1.213 1.806 1.213 3.046 0 1.24-.494 2.264-1.483 3.073-.736.629-1.86 1.14-3.369 1.536 1.024.61 2.111 1.41 3.261 2.399a58.12 58.12 0 0 1 3.774 3.53l.35 1.564a20.253 20.253 0 0 0-2.372-2.264 21.297 21.297 0 0 0-2.91-2.022 25.741 25.741 0 0 0-3.181-1.509 25.816 25.816 0 0 0-3.288-1.051l-1.806-3.774c1.275.701 2.686 1.114 4.231 1.24 1.168.09 2.202-.099 3.1-.566 1.24-.61 1.833-1.428 1.779-2.453 0-.323-.054-.637-.162-.943a2.195 2.195 0 0 0-.431-.809 2.164 2.164 0 0 0-.647-.566 1.707 1.707 0 0 0-.862-.215c-.144 0-.279.018-.405.054a5.216 5.216 0 0 1-.377.108c0 .718-.306 1.374-.916 1.967-.63.593-1.294.89-1.995.89-.45 0-.863-.135-1.24-.405-.377-.287-.566-.656-.566-1.105 0-.844.36-1.6 1.078-2.264.683-.629 1.5-.988 2.453-1.078 0-.288-.341-.692-1.024-1.213H9.38v4.636c0 .306.08.593.242.863.18.27.423.404.728.404.701-.234 1.348-.746 1.94-1.536.594-.863.99-1.294 1.187-1.294.719 0 1.374.566 1.967 1.698.54 1.006.809 1.922.809 2.75.072 1.778-.377 3.278-1.348 4.5-1.168 1.186-2.551 1.806-4.15 1.86-4.42 0-7.09-4.286-8.006-12.857l1.051.593c.072 1.078.243 2.13.513 3.154s.655 2.012 1.159 2.965c1.33 2.354 2.991 3.53 4.986 3.53a4.75 4.75 0 0 0 1.698-.296 5.407 5.407 0 0 0 1.482-.862c.953-.755 1.429-1.725 1.429-2.911 0-.683-.278-1.33-.836-1.941-.215.36-.476.719-.781 1.078a6.95 6.95 0 0 1-1.051.997c-.36.306-.72.54-1.079.701-.359.162-.673.243-.943.243-.323 0-.638-.063-.943-.189a2.54 2.54 0 0 1-.782-.539 3.04 3.04 0 0 1-.539-.836 2.626 2.626 0 0 1-.216-1.078V8.68H1.482L0 7.169h12.776c.647.019.97-.25.97-.808 0-.467-.287-.827-.862-1.078a3.81 3.81 0 0 0-1.429-.27c-.251 0-.557.01-.916.027a70.2 70.2 0 0 0-1.267.081c-.467.036-.89.063-1.267.081-.36.018-.656.027-.89.027a5.937 5.937 0 0 1-3.126-.862c-1.078-.647-1.617-1.5-1.617-2.561 0-.863.27-1.447.809-1.752l.27.135c.125.054.233.099.322.135-.377.305-.566.664-.566 1.078 0 .557.36 1.006 1.079 1.347.251.108.53.198.835.27.324.072.638.108.944.108.251 0 .557-.01.916-.027.377-.018.827-.045 1.348-.081.503-.036.943-.063 1.32-.081.396-.036.72-.054.97-.054 1.402 0 2.507.377 3.316 1.132.809.737 1.186 1.788 1.132 3.154h11.42c.197 0 .412-.018.646-.054a5.54 5.54 0 0 0 .647-.189c.557-.198.835-.494.835-.89 0-.377-.314-.655-.943-.835a2.429 2.429 0 0 0-.647-.135 4.785 4.785 0 0 0-.728-.054c-.251 0-.566.01-.943.027-.36.018-.79.045-1.294.081-.503.036-.943.063-1.32.081-.36.018-.665.027-.917.027a6.082 6.082 0 0 1-3.127-.835c-1.096-.647-1.644-1.492-1.644-2.534 0-.216.126-.557.378-1.024.251-.45.485-.656.7-.62a.79.79 0 0 1 .19.027h.215c-.431.305-.647.728-.647 1.267 0 .503.27.916.808 1.24.432.269.926.404 1.483.404.216 0 .647-.018 1.294-.054l2.614-.216c1.887.036 3.315.414 4.286 1.132.97.701 1.41 1.752 1.32 3.154h4.666l-1.05-.998c-.396-.395-.594-.8-.594-1.213 0-1.221.683-2.371 2.049-3.45C36.094.503 37.378 0 38.618 0c3.199 0 6.253 1.51 9.164 4.528l.297.809a17.45 17.45 0 0 0-1.617-1.267 18.753 18.753 0 0 0-2.022-1.267 8.034 8.034 0 0 0-2.13-.862 9.19 9.19 0 0 0-2.236-.27c-1.132 0-2.291.395-3.477 1.186-1.312.863-2.004 1.824-2.076 2.884l.593 1.429h23.198l-1.05-.998c-.396-.395-.594-.8-.594-1.213 0-1.221.683-2.371 2.049-3.45C60.047.503 61.33 0 62.57 0Zm50.017 7.17c.916 0 1.626.206 2.13.62.502.395.907 1.06 1.212 1.994 0-.305-.009-.683-.027-1.132a33.83 33.83 0 0 0-.108-1.59 83.46 83.46 0 0 1-.08-1.537c-.019-.449-.028-.826-.028-1.132l.54.459c.18 1.078.494 1.85.943 2.318h1.348L120 8.679h-2.83v15.768l-1.456-1.51V11.752c0-.467-.09-.89-.269-1.267a2.585 2.585 0 0 0-.755-.943 3.253 3.253 0 0 0-1.05-.62 3.449 3.449 0 0 0-1.268-.243h-.773v16.037c-.413-.305-.97-1.078-1.67-2.318-.755-1.311-1.483-2.273-2.184-2.884-1.15-.898-2.641-1.392-4.474-1.482l-2.022-2.615c.809-.772 1.6-1.509 2.372-2.21.79-.7 1.519-1.294 2.183-1.779-.18-.197-.53-.422-1.05-.674a25.714 25.714 0 0 0-2.076-.862c-1.08-.315-1.978-.72-2.697-1.212l-8.37-.001v6.118c.503.072.934 0 1.293-.215.378-.234.719-.53 1.024-.89.306-.377.593-.763.863-1.159.287-.413.593-.763.916-1.05.45.25.845.565 1.186.943.342.377.62.8.836 1.266.233.45.413.935.539 1.456.126.503.189 1.006.189 1.51 0 1.724-.477 3.135-1.429 4.231-.988 1.15-2.345 1.725-4.07 1.725-4.492 0-7.143-4.304-7.951-12.91l.997.484c.108 1.15.306 2.274.593 3.37.288 1.096.656 2.066 1.105 2.91 1.204 2.319 2.893 3.478 5.067 3.478a4.43 4.43 0 0 0 2.238-.54c.718-.395 1.284-.889 1.698-1.482a3.42 3.42 0 0 0 .674-1.968c.018-.718-.279-1.392-.89-2.021a3.554 3.554 0 0 1-.674 1.186c-.287.36-.629.674-1.024.943-.377.27-.79.494-1.24.674-.431.18-.862.297-1.294.35-1.401 0-2.102-1.078-2.102-3.234V8.68h-8.491v15.768l-1.537-1.51V8.68H76.13v15.74l-1.617-1.562.216-8.06a2.04 2.04 0 0 0-.162-.754 5.44 5.44 0 0 0-1.617-2.237l-5.31 5.336-2.156-.781c1.042-.989 1.563-1.77 1.563-2.345 0-1.042-.305-1.563-.916-1.563-.144 0-.297.026-.459.08-.161.054-.368.126-.62.216-.449.198-.808.297-1.078.297-.305 0-.584-.126-.835-.378-.234-.251-.35-.53-.35-.835 0-.54.188-1.079.565-1.618.396-.539.944-1.042 1.645-1.509a8.756 8.756 0 0 1 1.94-.943c.647-.216 1.258-.324 1.833-.324 2.21 0 4.268 1.626 6.172 4.879l.054-.027a306.811 306.811 0 0 0-.188-3.962c-.072-1.33-.135-2.66-.189-3.99l.674.566c.09.81.17 1.33.242 1.564.172.4.45.64.837.722l-.02-.021h4.017l-1.051-.998c-.396-.395-.593-.8-.593-1.213 0-1.221.683-2.371 2.048-3.45C82.104.503 83.39 0 84.63 0c3.198 0 6.253 1.51 9.164 4.528l.296.809a17.45 17.45 0 0 0-1.617-1.267 18.753 18.753 0 0 0-2.021-1.267 8.034 8.034 0 0 0-2.13-.862 9.19 9.19 0 0 0-2.237-.27c-1.132 0-2.29.395-3.477 1.186-1.312.863-2.003 1.824-2.075 2.884l.593 1.429h31.463Zm-7.242 13.315c.431 0 .8.152 1.105.458.306.305.459.674.459 1.105 0 .413-.153.773-.459 1.078a1.506 1.506 0 0 1-1.105.458c-.413 0-.772-.152-1.078-.458a1.475 1.475 0 0 1-.458-1.078c0-.431.153-.8.458-1.105a1.475 1.475 0 0 1 1.078-.458Zm4.771-11.806h-5.795c.467.288 1.024.746 1.671 1.375a28.702 28.702 0 0 1 2.102 2.318 57.463 57.463 0 0 0-1.832 1.806c-.611.61-1.231 1.257-1.86 1.94 2.48.863 4.366 2.39 5.66 4.582h.054V8.68Zm-62.954 3.342c-.916.342-1.833.773-2.749 1.294a31.51 31.51 0 0 0-2.911 1.833c2.516 1.06 4.384 2.74 5.606 5.04h.054v-8.167Zm22.12-2.965c-1.67 0-2.848.683-3.53 2.049.808 0 1.392.27 1.751.808.378.54.521 1.213.432 2.022l3.72-3.72c-.702-.772-1.492-1.159-2.373-1.159Z"/></svg>
